teeny/outline/quote.svg

<svg width="15" height="15" viewBox="0 0 15 15" fill="none" xmlns="http://www.w3.org/2000/svg">
<path d="M1.5 6.5H5.5C6.05228 6.5 6.5 6.05228 6.5 5.5V2.5C6.5 1.94772 6.05228 1.5 5.5 1.5H2.5C1.94772 1.5 1.5 1.94772 1.5 2.5V6.5ZM1.5 6.5V10C1.5 11.933 3.067 13.5 5 13.5M8.5 6.5H12.5C13.0523 6.5 13.5 6.05228 13.5 5.5V2.5C13.5 1.94772 13.0523 1.5 12.5 1.5H9.5C8.94772 1.5 8.5 1.94772 8.5 2.5V6.5ZM8.5 6.5V10C8.5 11.933 10.067 13.5 12 13.5" stroke="black"/>
</svg>

<svg viewBox="0 0 15 15" xmlns="http://www.w3.org/2000/svg"><path fill="none" stroke="#000" d="M1.5 6.5h4c.55 0 1-.45 1-1v-3c0-.56-.45-1-1-1h-3c-.56 0-1 .44-1 1v4Zm0 0V10c0 1.93 1.56 3.5 3.5 3.5m3.5-7h4c.55 0 1-.45 1-1v-3c0-.56-.45-1-1-1h-3c-.56 0-1 .44-1 1v4Zm0 0V10c0 1.93 1.56 3.5 3.5 3.5"/></svg>
